dist/assets/img/icons/road.svg

<svg width="31" height="34" viewBox="0 0 31 34" fill="none" xmlns="http://www.w3.org/2000/svg">
<g clip-path="url(#clip0_2_7111)">
<path d="M4.59999 23.8C4.59999 23.42 4.90999 23.12 5.27999 23.12H5.43999C5.81999 23.12 6.11999 23.43 6.11999 23.8C6.11999 24.17 5.80999 24.48 5.43999 24.48H5.27999C4.89999 24.48 4.59999 24.17 4.59999 23.8ZM19.38 9.44C18.45 9.75 17.83 10.62 17.83 11.59C17.83 12.84 18.85 13.86 20.1 13.86H26.28C27.53 13.86 28.55 12.84 28.55 11.59C28.55 10.62 27.93 9.75 27 9.44C26.64 9.32 26.26 9.51 26.14 9.87C26.02 10.23 26.21 10.61 26.57 10.73C26.94 10.86 27.19 11.2 27.19 11.59C27.19 12.09 26.78 12.5 26.28 12.5H20.1C19.6 12.5 19.19 12.09 19.19 11.59C19.19 11.2 19.44 10.86 19.81 10.73C20.17 10.61 20.36 10.22 20.24 9.87C20.12 9.51 19.73 9.32 19.38 9.44ZM9.16999 29.39C8.80999 29.27 8.42999 29.46 8.30999 29.82C8.18999 30.18 8.37999 30.56 8.73999 30.68C9.10999 30.81 9.35999 31.15 9.35999 31.54C9.35999 32.04 8.94999 32.45 8.44999 32.45H2.26999C1.76999 32.45 1.35999 32.04 1.35999 31.54C1.35999 31.15 1.60999 30.81 1.97999 30.68C2.33999 30.56 2.52999 30.17 2.40999 29.82C2.28999 29.46 1.89999 29.27 1.53999 29.39C0.60999 29.7 -0.0100098 30.57 -0.0100098 31.54C-0.0100098 32.79 1.00999 33.81 2.25999 33.81H8.43999C9.68999 33.81 10.71 32.79 10.71 31.54C10.71 30.57 10.09 29.7 9.15999 29.39H9.16999ZM3.47999 28.85C2.25999 26.46 1.50999 24.78 1.50999 23.8C1.50999 21.68 3.22999 19.96 5.34999 19.96C7.46999 19.96 9.18999 21.68 9.18999 23.8C9.18999 24.78 8.43999 26.46 7.21999 28.85C7.21999 28.85 6.78999 29.71 6.75999 29.75C6.57999 30.12 6.25999 30.8 5.33999 30.8C4.41999 30.8 4.09999 30.12 3.91999 29.75C3.89999 29.7 3.45999 28.85 3.45999 28.85H3.47999ZM2.87999 23.8C2.87999 24.65 4.15999 27.16 4.69999 28.23C4.69999 28.23 5.27999 29.39 5.31999 29.44C5.33999 29.47 5.37999 29.46 5.39999 29.44C5.43999 29.39 5.49999 29.26 5.54999 29.17C5.57999 29.12 6.01999 28.23 6.01999 28.23C6.55999 27.16 7.83999 24.65 7.83999 23.8C7.83999 22.43 6.72999 21.32 5.35999 21.32C3.98999 21.32 2.87999 22.43 2.87999 23.8ZM30.71 0.68V5.57C30.71 5.95 30.4 6.25 30.03 6.25H23.88V9.39H24.42C24.8 9.39 25.1 9.7 25.1 10.07C25.1 10.44 24.79 10.75 24.42 10.75H21.97C21.59 10.75 21.29 10.44 21.29 10.07C21.29 9.7 21.6 9.39 21.97 9.39H22.51V5.58V0.7C22.51 0.31 22.82 0 23.19 0H30.02C30.4 0 30.7 0.31 30.7 0.68H30.71ZM29.35 1.36H23.88V4.89H29.35V1.36ZM25.14 16.22H5.56999C3.24999 16.22 1.35999 14.33 1.35999 12.01C1.35999 9.69 3.24999 7.8 5.56999 7.8H19.33C19.71 7.8 20.01 7.49 20.01 7.12C20.01 6.75 19.7 6.44 19.33 6.44H5.56999C2.49999 6.44 -9.76585e-06 8.94 -9.76585e-06 12.02C-9.76585e-06 15.1 2.49999 17.59 5.56999 17.59H25.13C27.45 17.59 29.34 19.48 29.34 21.8C29.34 24.12 27.45 26.01 25.13 26.01H11.38C11 26.01 10.7 26.32 10.7 26.69C10.7 27.06 11.01 27.37 11.38 27.37H25.14C28.21 27.37 30.71 24.87 30.71 21.8C30.71 18.73 28.21 16.23 25.14 16.23V16.22Z" fill="#ACABAE"/>
</g>
<defs>
<clipPath id="clip0_2_7111">
<rect width="30.71" height="33.81" fill="white"/>
</clipPath>
</defs>
</svg>

<svg width="31" height="34" fill="none" xmlns="http://www.w3.org/2000/svg"><g clip-path="url(#clip0_2_7111)"><path d="M4.6 23.8c0-.38.31-.68.68-.68h.16c.38 0 .68.31.68.68 0 .37-.31.68-.68.68h-.16a.68.68 0 01-.68-.68zM19.38 9.44a2.267 2.267 0 00.72 4.42h6.18A2.267 2.267 0 0027 9.44a.675.675 0 00-.86.43c-.12.36.07.74.43.86.37.13.62.47.62.86 0 .5-.41.91-.91.91H20.1c-.5 0-.91-.41-.91-.91 0-.39.25-.73.62-.86a.679.679 0 10-.43-1.29zM9.17 29.39a.675.675 0 00-.86.43c-.12.36.07.74.43.86.37.13.62.47.62.86 0 .5-.41.91-.91.91H2.27c-.5 0-.91-.41-.91-.91 0-.39.25-.73.62-.86.36-.12.55-.51.43-.86a.686.686 0 00-.87-.43 2.267 2.267 0 00.72 4.42h6.18a2.267 2.267 0 00.72-4.42h.01zm-5.69-.54c-1.22-2.39-1.97-4.07-1.97-5.05a3.841 3.841 0 017.68 0c0 .98-.75 2.66-1.97 5.05 0 0-.43.86-.46.9-.18.37-.5 1.05-1.42 1.05-.92 0-1.24-.68-1.42-1.05-.02-.05-.46-.9-.46-.9h.02zm-.6-5.05c0 .85 1.28 3.36 1.82 4.43 0 0 .58 1.16.62 1.21.02.03.06.02.08 0 .04-.05.1-.18.15-.27.03-.05.47-.94.47-.94.54-1.07 1.82-3.58 1.82-4.43a2.48 2.48 0 10-4.96 0zM30.71.68v4.89c0 .38-.31.68-.68.68h-6.15v3.14h.54c.38 0 .68.31.68.68 0 .37-.31.68-.68.68h-2.45a.68.68 0 01-.68-.68c0-.37.31-.68.68-.68h.54V.7c0-.39.31-.7.68-.7h6.83c.38 0 .68.31.68.68h.01zm-1.36.68h-5.47v3.53h5.47V1.36zm-4.21 14.86H5.57c-2.32 0-4.21-1.89-4.21-4.21 0-2.32 1.89-4.21 4.21-4.21h13.76c.38 0 .68-.31.68-.68 0-.37-.31-.68-.68-.68H5.57C2.5 6.44 0 8.94 0 12.02s2.5 5.57 5.57 5.57h19.56c2.32 0 4.21 1.89 4.21 4.21 0 2.32-1.89 4.21-4.21 4.21H11.38a.68.68 0 00-.68.68c0 .37.31.68.68.68h13.76c3.07 0 5.57-2.5 5.57-5.57 0-3.07-2.5-5.57-5.57-5.57v-.01z" fill="#ACABAE"/></g><defs><clipPath id="clip0_2_7111"><path fill="#fff" d="M0 0h30.71v33.81H0z"/></clipPath></defs></svg>
